**harm	**harte	**timestamp	**phrase	**leadinstrument	**kern
*M4/4	*M4/4	*	*	*	*
*D:	*D:	*	*	*	*D:
1r;	N	0	.	r	1r;
=1	=1	=1	=1	=1	=1
*>A_intro	*>A_intro	*>A_intro	*>A_intro	*>A_intro	*>A_intro
1ii	E:min	0.534	newline	guitar	1E 1g 1b
=2	=2	=2	=2	=2	=2
1iii	F#:min	2.508	.	guitar	1F# 1a 1cc#
=3	=3	=3	=3	=3	=3
1IV	G:maj	4.482	.	guitar	1G 1b 1dd
=4	=4	=4	=4	=4	=4
1V	A:maj	6.456	.	guitar	1A 1cc# 1ee
=5	=5	=5	=5	=5	=5
1ii	E:min	8.431	newline	guitar	1E 1g 1b
=6	=6	=6	=6	=6	=6
1iii	F#:min	10.358	.	guitar	1F# 1a 1cc#
=7	=7	=7	=7	=7	=7
1IV	G:maj	12.286	.	guitar	1G 1b 1dd
=8	=8	=8	=8	=8	=8
1V	A:maj	14.213	.	guitar	1A 1cc# 1ee
=9	=9	=9	=9	=9	=9
1V	A:maj	16.141	.	guitar	1A 1cc# 1ee
=10	=10	=10	=10	=10	=10
*>B_verse	*>B_verse	*>B_verse	*>B_verse	*>B_verse	*>B_verse
1IV	G:maj	18.069	newline	voice	1G 1b 1dd
=11	=11	=11	=11	=11	=11
1IV	G:maj	20.002	.	voice	1G 1b 1dd
=12	=12	=12	=12	=12	=12
1I	D:maj	21.936	.	voice	1D 1f# 1a
=13	=13	=13	=13	=13	=13
1I	D:maj	23.869	.	voice	1D 1f# 1a
=14	=14	=14	=14	=14	=14
1IV	G:maj	25.803	newline	voice	1G 1b 1dd
=15	=15	=15	=15	=15	=15
1I	D:maj	27.72	.	voice	1D 1f# 1a
=16	=16	=16	=16	=16	=16
1V	A:maj	29.637	.	voice	1A 1cc# 1ee
=17	=17	=17	=17	=17	=17
1V	A:maj	31.555	.	voice	1A 1cc# 1ee
=18	=18	=18	=18	=18	=18
1IV	G:maj	33.472	newline	voice	1G 1b 1dd
=19	=19	=19	=19	=19	=19
1IV	G:maj	35.404	.	voice	1G 1b 1dd
=20	=20	=20	=20	=20	=20
1I	D:maj	37.336	.	voice	1D 1f# 1a
=21	=21	=21	=21	=21	=21
1I	D:maj	39.267	.	voice	1D 1f# 1a
=22	=22	=22	=22	=22	=22
1IV	G:maj	41.199	newline	voice	1G 1b 1dd
=23	=23	=23	=23	=23	=23
1I	D:maj	43.122	.	voice	1D 1f# 1a
=24	=24	=24	=24	=24	=24
2V	A:maj	45.045	.	voice	2A 2cc# 2ee
2Vd	A:maj/b7	46.007	.	voice	2a 2cc# 2ee
=25	=25	=25	=25	=25	=25
2Vg	A:maj/6	46.968	.	voice	2A 2cc# 2ee
2Vc	A:maj/5	47.93	.	voice	2a 2cc# 2E
=26	=26	=26	=26	=26	=26
*>C_chorus	*>C_chorus	*>C_chorus	*>C_chorus	*>C_chorus	*>C_chorus
1I	D:maj	48.891	newline	voice	1D 1f# 1a
=27	=27	=27	=27	=27	=27
1I	D:maj	50.818	.	voice	1D 1f# 1a
=28	=28	=28	=28	=28	=28
1iii	F#:min	52.744	.	voice	1F# 1a 1cc#
=29	=29	=29	=29	=29	=29
1iii	F#:min	54.671	.	voice	1F# 1a 1cc#
=30	=30	=30	=30	=30	=30
1IV	G:maj	56.598	newline	voice	1G 1b 1dd
=31	=31	=31	=31	=31	=31
1IV	G:maj	58.521	.	voice	1G 1b 1dd
=32	=32	=32	=32	=32	=32
2ii	E:min	60.443	.	voice	2E 2g 2b
2III	F#:maj	61.405	.	voice	2F# 2a# 2cc#
=33	=33	=33	=33	=33	=33
2IV	G:maj	62.366	.	voice	2G 2b 2dd
2V	A:maj	63.328	.	voice	2A 2cc# 2ee
=34	=34	=34	=34	=34	=34
1I	D:maj	64.289	newline	voice	1D 1f# 1a
=35	=35	=35	=35	=35	=35
1I	D:maj	66.243	.	voice	1D 1f# 1a
=36	=36	=36	=36	=36	=36
1iii	F#:min	68.197	.	voice	1F# 1a 1cc#
=37	=37	=37	=37	=37	=37
1iii	F#:min	70.152	.	voice	1F# 1a 1cc#
=38	=38	=38	=38	=38	=38
1IV	G:maj	72.106	newline	voice	1G 1b 1dd
=39	=39	=39	=39	=39	=39
2ii	E:min	74.022	.	voice	2E 2g 2b
2V	A:maj6	74.981	.	voice	2A 2cc# 2ee
=40	=40	=40	=40	=40	=40
1I	D:maj	75.939	.	voice	1D 1f# 1a
=41	=41	=41	=41	=41	=41
1I	D:maj	77.856	.	voice	1D 1f# 1a
=42	=42	=42	=42	=42	=42
*>B_verse	*>B_verse	*>B_verse	*>B_verse	*>B_verse	*>B_verse
1IV	G:maj	79.772	newline	voice	1G 1b 1dd
=43	=43	=43	=43	=43	=43
1IV	G:maj	81.696	.	voice	1G 1b 1dd
=44	=44	=44	=44	=44	=44
1I	D:maj	83.62	.	voice	1D 1f# 1a
=45	=45	=45	=45	=45	=45
1I	D:maj	85.544	.	voice	1D 1f# 1a
=46	=46	=46	=46	=46	=46
1IV	G:maj	87.467	newline	voice	1G 1b 1dd
=47	=47	=47	=47	=47	=47
1I	D:maj	89.391	.	voice	1D 1f# 1a
=48	=48	=48	=48	=48	=48
1V	A:maj	91.316	.	voice	1A 1cc# 1ee
=49	=49	=49	=49	=49	=49
1V	A:maj	93.24	.	voice	1A 1cc# 1ee
=50	=50	=50	=50	=50	=50
1IV	G:maj	95.164	newline	voice	1G 1b 1dd
=51	=51	=51	=51	=51	=51
1IV	G:maj	97.093	.	voice	1G 1b 1dd
=52	=52	=52	=52	=52	=52
1I	D:maj	99.022	.	voice	1D 1f# 1a
=53	=53	=53	=53	=53	=53
1I	D:maj	100.951	.	voice	1D 1f# 1a
=54	=54	=54	=54	=54	=54
1IV	G:maj	102.881	newline	voice	1G 1b 1dd
=55	=55	=55	=55	=55	=55
1I	D:maj	104.806	.	voice	1D 1f# 1a
=56	=56	=56	=56	=56	=56
2V	A:maj	106.731	.	voice	2A 2cc# 2ee
2Vd	A:maj/b7	107.693	.	voice	2a 2cc# 2ee
=57	=57	=57	=57	=57	=57
2Vg	A:maj/6	108.656	.	voice	2A 2cc# 2ee
2Vc	A:maj/5	109.619	.	voice	2a 2cc# 2E
=58	=58	=58	=58	=58	=58
*>C_chorus	*>C_chorus	*>C_chorus	*>C_chorus	*>C_chorus	*>C_chorus
1I	D:maj	110.581	newline	voice	1D 1f# 1a
=59	=59	=59	=59	=59	=59
1I	D:maj	112.508	.	voice	1D 1f# 1a
=60	=60	=60	=60	=60	=60
1iii	F#:min	114.435	.	voice	1F# 1a 1cc#
=61	=61	=61	=61	=61	=61
1iii	F#:min	116.362	.	voice	1F# 1a 1cc#
=62	=62	=62	=62	=62	=62
1IV	G:maj	118.289	newline	voice	1G 1b 1dd
=63	=63	=63	=63	=63	=63
1IV	G:maj	120.207	.	voice	1G 1b 1dd
=64	=64	=64	=64	=64	=64
2ii	E:min	122.126	.	voice	2E 2g 2b
2III	F#:maj	123.085	.	voice	2F# 2a# 2cc#
=65	=65	=65	=65	=65	=65
2IV	G:maj	124.044	.	voice	2G 2b 2dd
2V	A:maj	125.003	.	voice	2A 2cc# 2ee
=66	=66	=66	=66	=66	=66
1I	D:maj	125.963	newline	voice	1D 1f# 1a
=67	=67	=67	=67	=67	=67
1I	D:maj	127.894	.	voice	1D 1f# 1a
=68	=68	=68	=68	=68	=68
1iii	F#:min	129.826	.	voice	1F# 1a 1cc#
=69	=69	=69	=69	=69	=69
1iii	F#:min	131.758	.	voice	1F# 1a 1cc#
=70	=70	=70	=70	=70	=70
1IV	G:maj	133.69	newline	voice	1G 1b 1dd
=71	=71	=71	=71	=71	=71
2ii	E:min	135.612	.	voice	2E 2g 2b
2V	A:maj6	136.573	.	voice	2A 2cc# 2ee
=72	=72	=72	=72	=72	=72
1I	D:maj	137.535	.	voice	1D 1f# 1a
=73	=73	=73	=73	=73	=73
1I	D:maj	139.457	.	voice	1D 1f# 1a
=74	=74	=74	=74	=74	=74
*>D_bridge	*>D_bridge	*>D_bridge	*>D_bridge	*>D_bridge	*>D_bridge
1IV	G:maj	141.379	newline	voice	1G 1b 1dd
=75	=75	=75	=75	=75	=75
1IV	G:maj	143.309	.	voice	1G 1b 1dd
=76	=76	=76	=76	=76	=76
2ii	E:min	145.239	.	voice	2E 2g 2b
2iii	F#:min	146.204	.	voice	2F# 2a 2cc#
=77	=77	=77	=77	=77	=77
2IV	G:maj	147.169	.	voice	2G 2b 2dd
2V	A:maj	148.133	.	voice	2A 2cc# 2ee
=78	=78	=78	=78	=78	=78
1V	A:maj	149.098	.	voice	1A 1cc# 1ee
=79	=79	=79	=79	=79	=79
*M2/4	*M2/4	*M2/4	*M2/4	*M2/4	*M2/4
2V	A:maj	151.028	.	voice	2A 2cc# 2ee
=80	=80	=80	=80	=80	=80
*>C_chorus	*>C_chorus	*>C_chorus	*>C_chorus	*>C_chorus	*>C_chorus
*M4/4	*M4/4	*M4/4	*M4/4	*M4/4	*M4/4
1I	D:maj	151.993	newline	voice	1D 1f# 1a
=81	=81	=81	=81	=81	=81
1I	D:maj	153.924	.	voice	1D 1f# 1a
=82	=82	=82	=82	=82	=82
1iii	F#:min	155.854	.	voice	1F# 1a 1cc#
=83	=83	=83	=83	=83	=83
1iii	F#:min	157.785	.	voice	1F# 1a 1cc#
=84	=84	=84	=84	=84	=84
1IV	G:maj	159.715	newline	voice	1G 1b 1dd
=85	=85	=85	=85	=85	=85
1IV	G:maj	161.637	.	voice	1G 1b 1dd
=86	=86	=86	=86	=86	=86
2ii	E:min	163.558	.	voice	2E 2g 2b
2III	F#:maj	164.519	.	voice	2F# 2a# 2cc#
=87	=87	=87	=87	=87	=87
2IV	G:maj	165.479	.	voice	2G 2b 2dd
2V	A:maj	166.44	.	voice	2A 2cc# 2ee
=88	=88	=88	=88	=88	=88
1I	D:maj	167.401	newline	voice	1D 1f# 1a
=89	=89	=89	=89	=89	=89
1I	D:maj	169.341	.	voice	1D 1f# 1a
=90	=90	=90	=90	=90	=90
1iii	F#:min	171.281	.	voice	1F# 1a 1cc#
=91	=91	=91	=91	=91	=91
1iii	F#:min	173.221	.	voice	1F# 1a 1cc#
=92	=92	=92	=92	=92	=92
1IV	G:maj	175.162	newline	voice	1G 1b 1dd
=93	=93	=93	=93	=93	=93
2ii	E:min	177.096	.	voice	2E 2g 2b
2V	A:maj6	178.063	.	voice	2A 2cc# 2ee
=94	=94	=94	=94	=94	=94
*>C_chorus	*>C_chorus	*>C_chorus	*>C_chorus	*>C_chorus	*>C_chorus
1I	D:maj	179.03	newline	voice	1D 1f# 1a
=95	=95	=95	=95	=95	=95
1I	D:maj	180.95	.	voice	1D 1f# 1a
=96	=96	=96	=96	=96	=96
1iii	F#:min	182.87	.	voice	1F# 1a 1cc#
=97	=97	=97	=97	=97	=97
1iii	F#:min	184.791	.	voice	1F# 1a 1cc#
=98	=98	=98	=98	=98	=98
1IV	G:maj	186.711	newline	voice	1G 1b 1dd
=99	=99	=99	=99	=99	=99
1IV	G:maj	188.631	.	voice	1G 1b 1dd
=100	=100	=100	=100	=100	=100
2ii	E:min	190.551	.	voice	2E 2g 2b
2III	F#:maj	191.511	.	voice	2F# 2a# 2cc#
=101	=101	=101	=101	=101	=101
2IV	G:maj	192.471	.	voice	2G 2b 2dd
2V	A:maj	193.431	.	voice	2A 2cc# 2ee
=102	=102	=102	=102	=102	=102
*>_fadeout	*>_fadeout	*>_fadeout	*>_fadeout	*>_fadeout	*>_fadeout
1I	D:maj	194.391	newline	voice	1D 1f# 1a
=103	=103	=103	=103	=103	=103
1I	D:maj	196.321	.	voice	1D 1f# 1a
=104	=104	=104	=104	=104	=104
1iii	F#:min	198.251	.	voice	1F# 1a 1cc#
=105	=105	=105	=105	=105	=105
1iii	F#:min	200.182	.	voice	1F# 1a 1cc#
=106	=106	=106	=106	=106	=106
1IV	G:maj	202.112	newline	voice	1G 1b 1dd
=107	=107	=107	=107	=107	=107
2ii	E:min	204.01	.	voice	2E 2g 2b
2V	A:maj6	204.96	.	voice	2A 2cc# 2ee
=108	=108	=108	=108	=108	=108
1I	D:maj	205.909	newline	voice	1D 1f# 1a
=109	=109	=109	=109	=109	=109
1I	D:maj	207.2	.	voice	1D 1f# 1a
1r;	N	208.492	.	r	1r;
1r;	N	212.036	.	r	1r;
*-	*-	*-	*-	*-	*-
!!!OTL: Lookin' For Love
!!!COC: Johnny Lee
!!!BillboardChartDate: 1980/11/15
!!!BillboardPeak: 5
!!!BillboardWeeksOnChart: 21
!!!SampleTargetRank: 65
!!!SampleActualRank: 63
!!!SampleID#: 0012
!!!RDF**harmony: **recip + pitch class of root + harmonic quality
!!!RDF**harte: Chris Harte's syntax, used by MIREX
!!!RDF**phrase: newline = linebreak in original McGill transcription
!!!RDF**timestamp: McGill audio timestamp in seconds
!!!RDF**leadinstrument: original McGill primary instrumentation annotation
!!!RDT: 2017/01/12/
!!!ENC: Nathaniel Condit-Schultz
!!!EST: Awating manual error checking and editing.
